X:1
T:Prélude in B♭ Minor
T:Opus 28 No. 16
T:Frédéric François Chopin (1810 - 1849)
C:Frédéric Chopin
%%score { 1 | ( 2 3 ) }
L:1/8
Q:1/4=40
M:4/4
K:E
V:1 treble nm="Piano"
V:2 bass 
V:3 bass 
V:1
!f! (3(!>![F^Ba]2 !>![FBg]2 !>![^FB^^f]2 (3!>![FB^f]2 !>![FBe]2 !>!!fermata![FBd]2) || %1
[Q:1/4=210]"^Presto con fuoco"!<(! (g/f/d/e/ G/^B/c/d/ e/f/g/^a/ ^b/c'/d'/e'/ | %2
!8va(! f'/g'/^a'/^b'/ c''/d''/e''/f''/ ^^f''/!<)!g''/!>(!^f''/e''/ d''/c''/b'/c''/ | %3
 =b'/=a'/g'/^^f'/!8va)! g'/^f'/e'/d'/ c'/^b/c'/!>)!=b/ a/g/f/e/ | %4
!<(! d/e/f/g/ a/b/c'/d'/ c'/b/a/g/ f/e/d/!<)!f/ | a/^e/g/f/!<(! d/A/^^c/d/ =e/d/^e/f/ g/f/^^f/g/ | %6
 b/a/^b/c'/ e'/d'/e'/^e'/!8va(! g'/f'/^^f'/g'/ ^b'/c''/=b'/!<)!^a'/ | %7
!>(! =a'/g''/f''/f'/ e''/d''/d'/c''/ ^b'/^b/=b'/a'/!8va)! a/g'/f'/a/ | %8
 g/f'/e'/g/ e'/d'/f/d'/ e/c'/b/d/ b/a/c/!>)!a/) | (^B/c/d/e/ f/^^f/g/a/ f/g/^e/^f/ d/=e/d/c/) | %10
 (^B/c/d/e/ f/^^f/g/a/ f/g/^e/^f/ d/=e/d/c/) | (^^c/d/^e/f/ ^^f/g/^a/b/ ^^g/a/^^f/^g/ ^e/^f/e/d/) | %12
 (^^c/d/^e/f/ ^^f/g/^a/b/ ^^g/a/^^f/^g/ ^e/^f/e/d/) | %13
 (=e/f/g/=a/!<(! b/c'/^^c'/d'/ ^^d'/!<)!^e'/g'/f'/!>(! ^d'/^b/a/!>)!f/) | %14
 (=e/f/g/a/!<(! b/c'/^^c'/d'/ e'/d'/!<)!f'/!>(!e'/ ^c'/^a/^^f/!>)!e/) | %15
 (d/!<(!e/^e/f/ ^^f/g/=a/^a/ b/!<)!^b/!>(!d'/c'/ =a/g/^f/!>)!=e/ | %16
 d/c/^B/d/!<(! A/G/^^F/G/ A/G/c/B/ e/d/=b/!<)!a/) | %17
!ff! (g/d/f/e/!<(! G/^B/c/d/ e/f/g/^a/ ^b/c'/d'/e'/ | %18
!8va(! f'/g'/^a'/^b'/ c''/d''/e''/f''/!<)! ^^f''/!>(!g''/^f''/e''/ d''/c''/b'/c''/ | %19
 =b'/=a'/g'/^^f'/!8va)! g'/^f'/e'/d'/ c'/^b/c'/=b/ a/g/f/!>)!e/ | %20
!<(! d/e/f/g/ a/b/c'/d'/ c'/b/a/g/ f/e/d/!<)!f/ | %21
!ff! a/^e/=g/f/ d/A/^^c/d/!<(! =e/d/^e/f/ =g/f/^^f/^g/ | %22
 b/=a/^^c'/d'/!8va(! =e'/d'/^e'/f'/ =g'/f'/^^f'/^g'/ b'/c''/b'/!<)!^a'/ | %23
!>(! =a'/g''/f''/a'/ f''/e''/g'/e''/ d''/f'/d''/c''/ e'/c''/b'/d'/ | %24
 b'/a'/c'/a'/!8va)! g'/b/g'/f'/ a/f'/e'/g/ c'/b/g/!>)!e/) | %25
!<(! (d/e/f/^^f/ g/a/b/!<)!=c'/!>(! ^a/b/^f/=g/ B/g/f/!>)!e/) | %26
!<(! (d/e/f/^^f/ ^g/=a/b/!<)!=c'/!>(! ^a/b/^f/=g/ B/g/e/!>)!=d/) | %27
!<(! (^^B/^^c/^^d/^e/ ^^e/^^f/^^g/!<)!^a/!>(! ^g/^^g/^^e/f/ ^^d/^e/^^c/!>)!^B/) | %28
!<(! (^^A/^B/^^c/^d/ ^^d/^e/^^f/!<)!^g/!>(! ^^e/f/^^d/^e/ ^^c/^d/c/!>)!B/) | %29
 (^^A/"^stretto"^B/=e/d/ ^c/B/=a/!<(!g/ ^f/!<)!e/)!>(!(d'/c'/ =b/a/g/!>)!f/ | %30
 e/d/)(c'/b/ a/g/f/e/ d/c/)(b/a/ g/f/e/d/ | %31
 c/^B/=B/^A/)!>(! (=B/A/=A/!>)!G/)!>(! (^A/=A/G/!>)!^^F/)!>(! (A/G/F/!>)!^F/) | %32
!>(! (G/^^F/^F/!>)!^E/)!>(! (^^F/^F/E/!>)!=E/)!>(! (F/^E/=E/!>)!D/)!>(! (F/E/D/!>)!C/) | %33
!<(! (^B,/C/D/E/ F/^^F/G/!<)!A/!>(! F/G/^E/^F/ D/=E/D/!>)!C/) | %34
!<(! (^B,/C/D/E/ F/^^F/G/!<)!A/!>(! F/G/^E/^F/ D/=E/D/!>)!C/) | %35
!<(! (D/E/F/G/ A/d/c/!<)!D/!<(! C/D/E/F/ G/d/c/!<)!A/) | %36
!<(! (^^F/G/A/G/ c/^B/a/!<)!g/!>(! ^f/e/c/G/ ^F/E/C/!>)!G,/) | %37
!<(! (^B,/C/D/E/ F/^^F/G/!<)!A/!>(! F/G/^E/^F/ D/=E/D/!>)!C/) | %38
!<(! (^B,/C/D/E/ F/^^F/G/!<)!A/!>(! F/G/^E/^F/ D/=E/D/!>)!C/) | %39
 (=D/E/F/=G/ A/B/c/=d/!<(! e/f/=g/a/ b/c'/=d'/!<)!e'/ | %40
!>(! =g'/f'/=d'/b/ a/f/=d/B/ A/!>)!F/=D/B,/[K:bass] A,/F,/=D,/B,,/) | %41
!f! (^^F,,/G,,/C,/^B,,/ A,,/G,,/E,/^D,/ C,/B,,/A,/G,/ E,/D,/C/^B,/ | %42
 A,/G,/E/D/[K:treble] C/^B,/A/G/ E/D/c/^B/ A/G/e/d/ | c/^B/a/g/ e/d/c'/^b/ a/g/e'/d'/ c'/b/a'/g'/ | %44
!8va(! e'/d'/c''/^b'/ a'/g'/e''/d''/ !wedge!.g'')!8va)! z!ff! .[F^Bg]2 | .[cc']2 z2 z4 |] %46
V:2
 (3[G,,,G,,]2 [D,G,D]2 [D,G,D]2 (3[D,G,D]2 [D,G,D]2 !fermata![D,G,D]2 || %1
!ped! (C,[G,E]) z!ped-up! G,,!ped! (C,[G,E]) z!ped-up! G,, | %2
!ped! (C,[G,E]) z!ped-up! G,,!ped! (C,[G,E]) z!ped-up! G,, | %3
!ped! (C,[G,E]) z!ped-up! G,,!ped! (C,[G,E]) z!ped-up! G,, | %4
!ped! (C,[F,A,F]) z!ped-up! C,,!ped! (C,[F,A,F]) z!ped-up! C,, | %5
!ped! (C,[F,A,F]) z!ped-up! C,,!ped! (C,[F,A,F]) z!ped-up! C,, | %6
!ped! (C,[F,A,F]) z!ped-up! C,,!ped! (C,[F,A,F]) z!ped-up! C, | %7
!ped! (^B,,[A,F]) z!ped-up! ^B,,,!ped! (B,,[A,F]) z!ped-up! B,, | %8
!ped! (C,[G,E]) z!ped-up! C,!ped! (C,[G,CG]) z!ped-up! (E, | %9
!ped! F,[^B,A]) z!ped-up! (F,!ped! E,[G,CG]) z!ped-up! (E, | %10
!ped! F,[^B,A]) z!ped-up! (F,!ped! E,[G,CG]) z!ped-up! (E, | %11
!ped! G,[^^CB]) z!ped-up! (G,!ped! ^F,[^A,D^A]) z!ped-up! (F, | %12
!ped! G,[^^CB]) z!ped-up! (G,!ped! ^F,[^A,D^A]) z!ped-up! (F, | %13
!ped! G,[B,EB]) z!ped-up! (G,!ped! =A,[^B,D^B]) z!ped-up! A, | %14
!ped! G,[=B,E=B] z!ped-up! (G,!ped! ^^F,[CE^A]) z!ped-up! (A, | %15
!ped! ^F,[^B,=A]) z!ped-up! (F,!ped! =E,[G,CG]) z2!ped-up! | %16
!ped! G,, z !arpeggio![D,F,^B,F]2 z4!ped-up! | %17
!ped! [C,,C,][E,G,E] z!ped-up! ([G,,,G,,]!ped! [C,,C,])[E,G,E] z!ped-up! ([G,,,G,,] | %18
!ped! [C,,C,])[E,G,E] z!ped-up! ([G,,,G,,]!ped! [C,,C,])[E,G,E] z!ped-up! ([G,,,G,,] | %19
!ped! [C,,C,])[E,G,E] z!ped-up! ([G,,,G,,]!ped! [C,,C,])[E,G,E] z!ped-up! ([G,,,G,,] | %20
!ped! [C,,C,])[F,A,F] z!ped-up! ([G,,,G,,]!ped! [C,,C,])[F,A,F] z!ped-up! ([G,,,G,,] | %21
!ped! [=C,,=C,])[F,A,F] z!ped-up! ([F,,,F,,]!ped! [C,,C,])[F,A,F] z!ped-up! ([^F,,,^F,,] | %22
!ped! [=C,,=C,])[F,A,F] z!ped-up!!ped! ([F,,,F,,] [C,,C,])[F,A,F] z!ped-up! ([F,,,F,,] | %23
!ped! [B,,,B,,])[F,DA] z!ped-up! ([F,,,F,,]!ped! [B,,,B,,])[F,DA] z!ped-up! (B,,, | %24
!ped! B,,)[G,EG] z!ped-up! (B,,,!ped! B,,)[G,E] z!ped-up! (B,,, | %25
!ped! B,,)[F,A,D] z!ped-up! (B,,,!ped! B,,)[=G,E] z!ped-up! (B,,, | %26
!ped! B,,)[F,A,D] z!ped-up! (B,,!ped! E,)[=G,E] z!ped-up! (^A,, | %27
!ped! ^^G,,)[^^G,^^B,^^F] z!ped-up! (^^G,,,!ped! G,,)[G,^^C^E] z!ped-up! (^G,, | %28
!ped! ^^F,,)[^^F,^^A,^E] z!ped-up! (^^F,,,!ped! F,,)[F,^B,^D] z!ped-up! [F,,,F,,] | %29
!ped! [G,,,G,,] z !arpeggio![D,G,^F]2!ped-up!!ped! !arpeggio![C,G,=E]2!ped-up!!ped! !arpeggio![F,C=A]2!ped-up! | %30
!ped! !arpeggio![=B,,A,D]2!ped-up!!ped! !arpeggio![E,B,G]2!ped-up!!ped! !arpeggio![A,,E,C]2!ped-up!!ped! !arpeggio![D,A,F]2!ped-up! | %31
 [E,G,CE]2 [F,=A,CD]2 z2 (A,/G,/^^F,/^F,/) | %32
 (G,/^^F,/^F,/^E,/) (^^F,/^F,/E,/=E,/) (F,/^E,/=E,/D,/) (F,/E,/D,/C,/) | %33
!ped! (F,,[^B,,A,]) z!ped-up! (F,,!ped! E,,)[C,G,] z!ped-up! (E,, | %34
!ped! F,,)[^B,,A,] z!ped-up! (F,,!ped! E,,)[C,G,] z!ped-up! (E,, | %35
!ped! F,,)[C,A,] z!ped-up! (F,,!ped! G,,)[E,C] z!ped-up! (G,,, | %36
!ped! G,,)[F,^B,] z!ped-up! (G,,!ped! C,)[G,E] z!ped-up! (E,, | %37
!ped! F,,)[^B,,A,] z!ped-up! (F,,!ped! E,,)[C,G,] z!ped-up! (E,, | %38
!ped! F,,)[^B,,A,] z!ped-up! (F,,!ped! E,,)[C,G,] z!ped-up! (E,, | %39
!ped! [F,,=D,A,]2) z2 [F,A,=DA]2!ped-up!!ped! [E,A,C=G]2!ped-up! |!ped! F4 z4!ped-up! | %41
 (^^F,,,/G,,,/C,,/^B,,,/ A,,,/G,,,/E,,/D,,/ C,,/B,,,/A,,/G,,/ E,,/D,,/C,/^B,,/ | %42
 A,,/G,,/E,/D,/ C,/^B,,/A,/G,/ E,/D,/C/^B,/ A,/G,/E/D/ | %43
 C/^B,/A/G/[K:treble] E/D/c/^B/ A/G/e/d/ c/B/a/g/ | %44
 e/d/c'/^b/ a/g/e'/d'/ !wedge!.g') z[K:bass] .[G,,G,]2 |!ped!{/C,,} !>!.[C,G,E]2 z2 z4!ped-up! |] %46
V:3
 x8 || x8 | x8 | x8 | x8 | x8 | x8 | x8 | x8 | x8 | x8 | x8 | x8 | x8 | x8 | x8 | x8 | x8 | x8 | %19
 x8 | x8 | x8 | x8 | x8 | x8 | x8 | x8 | x8 | x8 | x8 | x8 | x8 | x8 | x8 | x8 | x8 | x8 | x8 | %38
 x8 | x8 | [=D,A,]2 z2 x4 | x8 | x8 | x2[K:treble] x6 | x6[K:bass] x2 | x8 |] %46

